images/slider2/cl-2.svg

<svg width="131" height="78" viewBox="0 0 131 78" fill="none" xmlns="http://www.w3.org/2000/svg">
<g clip-path="url(#clip0)">
<path d="M36.8679 28.3291C36.8679 29.9341 37.0409 31.2354 37.3435 32.1897C37.6893 33.144 38.1217 34.185 38.7269 35.3128C38.9431 35.6598 39.0295 36.0069 39.0295 36.3105C39.0295 36.7443 38.7702 37.178 38.2081 37.6118L35.4845 39.4336C35.0954 39.6939 34.7063 39.824 34.3604 39.824C33.9281 39.824 33.4958 39.6071 33.0635 39.2168C32.4582 38.5661 31.9394 37.8721 31.5071 37.178C31.0748 36.4406 30.6424 35.6165 30.1669 34.6188C26.7948 38.6095 22.558 40.6048 17.4565 40.6048C13.825 40.6048 10.9284 39.5638 8.81004 37.4817C6.69165 35.3996 5.61084 32.6234 5.61084 29.1533C5.61084 25.4662 6.90781 22.4732 9.545 20.2176C12.1822 17.962 15.684 16.8342 20.137 16.8342C21.6069 16.8342 23.12 16.9643 24.7196 17.1812C26.3192 17.3981 27.962 17.7451 29.6913 18.1355V14.969C29.6913 11.6723 28.9996 9.37335 27.6594 8.02866C26.276 6.68397 23.9414 6.03332 20.6125 6.03332C19.0994 6.03332 17.543 6.20682 15.9434 6.59722C14.3438 6.98761 12.7874 7.46476 11.2743 8.07204C10.5826 8.37568 10.0638 8.54918 9.76116 8.63594C9.45853 8.72269 9.24237 8.76607 9.06944 8.76607C8.46418 8.76607 8.16156 8.3323 8.16156 7.42138V5.29591C8.16156 4.60187 8.24802 4.08135 8.46418 3.77771C8.68035 3.47407 9.06944 3.17043 9.67469 2.86679C11.1878 2.086 13.0036 1.43535 15.122 0.914824C17.2404 0.350923 19.4885 0.0906603 21.8663 0.0906603C27.0109 0.0906603 30.7721 1.26184 33.1932 3.6042C35.5709 5.94656 36.7815 9.50348 36.7815 14.275V28.3291H36.8679ZM19.3155 34.9224C20.7422 34.9224 22.2121 34.6622 23.7685 34.1416C25.3249 33.6211 26.7083 32.6668 27.8756 31.3655C28.5673 30.5413 29.0861 29.6304 29.3455 28.5894C29.6049 27.5483 29.7778 26.2904 29.7778 24.8156V22.9937C28.5241 22.6901 27.1838 22.4298 25.8004 22.2563C24.417 22.0828 23.0768 21.9961 21.7366 21.9961C18.84 21.9961 16.7216 22.56 15.2949 23.7311C13.8682 24.9023 13.1765 26.5507 13.1765 28.7195C13.1765 30.7582 13.6953 32.2764 14.7761 33.3175C15.8137 34.4019 17.3268 34.9224 19.3155 34.9224ZM54.0312 39.6072C53.253 39.6072 52.7342 39.477 52.3884 39.1734C52.0425 38.9131 51.7399 38.3058 51.4805 37.4817L41.3209 3.95122C41.0615 3.08368 40.9318 2.51977 40.9318 2.21614C40.9318 1.5221 41.2776 1.13171 41.9694 1.13171H46.2061C47.0276 1.13171 47.5896 1.26184 47.8922 1.56548C48.2381 1.82574 48.4975 2.43302 48.7569 3.25718L56.0199 31.9728L62.7642 3.25718C62.9803 2.38964 63.2397 1.82574 63.5856 1.56548C63.9315 1.30522 64.5367 1.13171 65.3149 1.13171H68.7735C69.5949 1.13171 70.1569 1.26184 70.5028 1.56548C70.8487 1.82574 71.1513 2.43302 71.3242 3.25718L78.1549 32.3198L85.6342 3.25718C85.8936 2.38964 86.1962 1.82574 86.4988 1.56548C86.8447 1.30522 87.4067 1.13171 88.1849 1.13171H92.2055C92.8972 1.13171 93.2863 1.47873 93.2863 2.21614C93.2863 2.43302 93.2431 2.64991 93.1998 2.91017C93.1566 3.17043 93.0702 3.51745 92.8972 3.99459L82.4782 37.5251C82.2188 38.3926 81.9162 38.9565 81.5703 39.2168C81.2244 39.477 80.6624 39.6505 79.9275 39.6505H76.2095C75.3881 39.6505 74.826 39.5204 74.4802 39.2168C74.1343 38.9131 73.8317 38.3492 73.6588 37.4817L66.9577 9.50348L60.2999 37.4383C60.0838 38.3058 59.8244 38.8697 59.4785 39.1734C59.1326 39.477 58.5274 39.6072 57.7492 39.6072H54.0312ZM109.585 40.7783C107.337 40.7783 105.089 40.5181 102.927 39.9975C100.766 39.477 99.0795 38.9131 97.9554 38.2625C97.2637 37.8721 96.7881 37.4383 96.6152 37.0479C96.4423 36.6575 96.3558 36.2237 96.3558 35.8333V33.6211C96.3558 32.7102 96.7017 32.2764 97.3502 32.2764C97.6096 32.2764 97.8689 32.3198 98.1283 32.4066C98.3877 32.4933 98.7768 32.6668 99.2092 32.8403C100.679 33.491 102.279 34.0115 103.965 34.3585C105.694 34.7055 107.38 34.8791 109.109 34.8791C111.833 34.8791 113.951 34.4019 115.421 33.4476C116.891 32.4933 117.669 31.1052 117.669 29.3268C117.669 28.1122 117.28 27.1146 116.502 26.2904C115.724 25.4662 114.254 24.7288 112.136 24.0348L105.867 22.0828C102.711 21.0851 100.376 19.6103 98.9498 17.6584C97.5231 15.7498 96.7881 13.6243 96.7881 11.3687C96.7881 9.54686 97.1772 7.94191 97.9554 6.55384C98.7336 5.16577 99.7712 3.95122 101.068 2.99692C102.365 1.99925 103.835 1.26184 105.564 0.741316C107.294 0.220791 109.109 0.00390625 111.012 0.00390625C111.963 0.00390625 112.957 0.0472833 113.908 0.177414C114.903 0.307546 115.81 0.481054 116.718 0.654562C117.583 0.871447 118.404 1.08833 119.183 1.34859C119.961 1.60886 120.566 1.86912 120.998 2.12938C121.604 2.4764 122.036 2.82341 122.295 3.21381C122.555 3.56082 122.684 4.03797 122.684 4.64525V6.68397C122.684 7.59489 122.339 8.07204 121.69 8.07204C121.344 8.07204 120.782 7.89853 120.047 7.55151C117.583 6.42371 114.816 5.85981 111.747 5.85981C109.282 5.85981 107.337 6.2502 105.997 7.07436C104.656 7.89853 103.965 9.15646 103.965 10.9349C103.965 12.1495 104.397 13.1905 105.262 14.0147C106.126 14.8389 107.726 15.663 110.017 16.4004L116.156 18.3524C119.269 19.3501 121.517 20.7381 122.857 22.5166C124.198 24.2951 124.846 26.3338 124.846 28.5894C124.846 30.4546 124.457 32.1463 123.722 33.6211C122.944 35.0959 121.906 36.3972 120.566 37.4383C119.226 38.5227 117.626 39.3035 115.767 39.8674C113.822 40.4747 111.79 40.7783 109.585 40.7783Z" fill="#153053" fill-opacity="0.6"/>
<path d="M117.756 61.8597C103.532 72.4003 82.8671 77.9959 65.0986 77.9959C40.1967 77.9959 17.759 68.7566 0.811917 53.4011C-0.528289 52.1866 0.68222 50.5382 2.28182 51.4925C20.6124 62.1633 43.223 68.6265 66.6117 68.6265C82.3916 68.6265 99.7278 65.3298 115.681 58.563C118.058 57.4786 120.09 60.1246 117.756 61.8597Z" fill="#153053" fill-opacity="0.6"/>
<path d="M123.679 55.093C121.863 52.7506 111.66 53.9652 107.034 54.5291C105.651 54.7026 105.435 53.4881 106.688 52.5771C114.816 46.8514 128.175 48.4997 129.731 50.4083C131.288 52.3603 129.299 65.7638 121.69 72.1836C120.523 73.1812 119.399 72.6607 119.917 71.3594C121.647 67.0651 125.494 57.392 123.679 55.093Z" fill="#153053" fill-opacity="0.6"/>
</g>
<defs>
<clipPath id="clip0">
<rect x="0.25" width="130" height="78" fill="white"/>
</clipPath>
</defs>
</svg>

<svg width="131" height="78" fill="none" xmlns="http://www.w3.org/2000/svg"><g clip-path="url(#clip0)" fill="#153053" fill-opacity=".6"><path d="M36.868 28.33c0 1.604.173 2.905.475 3.86.346.954.779 1.995 1.384 3.123.216.347.303.694.303.997 0 .434-.26.868-.822 1.302l-2.724 1.822c-.389.26-.778.39-1.124.39-.432 0-.864-.217-1.297-.607a13.41 13.41 0 0 1-1.556-2.039 33.598 33.598 0 0 1-1.34-2.56c-3.372 3.991-7.609 5.987-12.71 5.987-3.632 0-6.529-1.041-8.647-3.123-2.118-2.082-3.2-4.859-3.2-8.329 0-3.687 1.298-6.68 3.935-8.935 2.637-2.256 6.139-3.384 10.592-3.384 1.47 0 2.983.13 4.583.347 1.6.217 3.242.564 4.971.954V14.97c0-3.297-.691-5.596-2.032-6.94-1.383-1.345-3.718-1.996-7.046-1.996-1.514 0-3.07.174-4.67.564-1.6.39-3.156.868-4.669 1.475-.691.304-1.21.477-1.513.564-.302.087-.519.13-.692.13-.605 0-.907-.434-.907-1.345V5.296c0-.694.086-1.215.302-1.518.216-.304.605-.608 1.21-.911 1.514-.781 3.33-1.432 5.448-1.952C17.24.35 19.488.09 21.866.09c5.145 0 8.906 1.17 11.327 3.513 2.378 2.343 3.589 5.9 3.589 10.671v14.054h.086zm-17.553 6.592c1.427 0 2.897-.26 4.453-.78 1.557-.52 2.94-1.475 4.108-2.777.691-.824 1.21-1.735 1.47-2.776.259-1.04.432-2.299.432-3.773v-1.822a36.003 36.003 0 0 0-3.978-.738 32.47 32.47 0 0 0-4.063-.26c-2.897 0-5.015.564-6.442 1.735-1.427 1.171-2.118 2.82-2.118 4.988 0 2.04.518 3.557 1.6 4.599 1.037 1.084 2.55 1.604 4.539 1.604zm34.716 4.685c-.778 0-1.297-.13-1.643-.434-.346-.26-.648-.867-.907-1.691L41.32 3.952c-.26-.868-.39-1.432-.39-1.736 0-.694.347-1.084 1.038-1.084h4.237c.822 0 1.384.13 1.686.433.346.26.605.868.865 1.692l7.263 28.716 6.744-28.716c.216-.867.476-1.431.822-1.692.346-.26.95-.433 1.729-.433h3.459c.82 0 1.383.13 1.729.433.346.26.648.868.821 1.692l6.83 29.063 7.48-29.063c.26-.867.562-1.431.865-1.692.346-.26.908-.433 1.686-.433h4.02c.692 0 1.081.347 1.081 1.084 0 .217-.043.434-.086.694-.043.26-.13.607-.303 1.085l-10.419 33.53c-.26.868-.562 1.431-.908 1.692-.346.26-.908.434-1.642.434H76.21c-.822 0-1.384-.13-1.73-.434-.346-.304-.648-.868-.821-1.735L66.958 9.503 60.3 37.438c-.216.868-.476 1.432-.822 1.735-.345.304-.95.434-1.729.434h-3.718zm55.554 1.171a28.55 28.55 0 0 1-6.658-.78c-2.161-.521-3.848-1.085-4.972-1.735-.691-.39-1.167-.825-1.34-1.215a3.071 3.071 0 0 1-.26-1.215v-2.212c0-.91.347-1.345.995-1.345.26 0 .519.044.778.13.26.087.649.26 1.081.434 1.47.651 3.07 1.171 4.756 1.518a25.8 25.8 0 0 0 5.144.521c2.724 0 4.842-.477 6.312-1.431 1.47-.955 2.248-2.343 2.248-4.121 0-1.215-.389-2.212-1.167-3.037-.778-.824-2.248-1.561-4.366-2.255l-6.269-1.952c-3.156-.998-5.491-2.473-6.917-4.425-1.427-1.908-2.162-4.034-2.162-6.29 0-1.821.39-3.426 1.167-4.814a11.144 11.144 0 0 1 3.113-3.557c1.297-.998 2.767-1.735 4.496-2.256 1.73-.52 3.545-.737 5.448-.737.951 0 1.945.043 2.896.173.995.13 1.902.304 2.81.478a32.81 32.81 0 0 1 2.465.694c.778.26 1.383.52 1.815.78.606.347 1.038.694 1.297 1.085.26.347.389.824.389 1.431v2.039c0 .91-.345 1.388-.994 1.388-.346 0-.908-.173-1.643-.52-2.464-1.128-5.231-1.692-8.3-1.692-2.465 0-4.41.39-5.75 1.214-1.341.825-2.032 2.082-2.032 3.86 0 1.216.432 2.257 1.297 3.08.864.825 2.464 1.649 4.755 2.386l6.139 1.952c3.113.998 5.361 2.386 6.701 4.165 1.341 1.778 1.989 3.817 1.989 6.072 0 1.866-.389 3.557-1.124 5.032-.778 1.475-1.816 2.776-3.156 3.817-1.34 1.085-2.94 1.865-4.799 2.43-1.945.607-3.977.91-6.182.91zm8.171 21.082C103.532 72.4 82.867 77.996 65.099 77.996c-24.902 0-47.34-9.24-64.287-24.595-1.34-1.214-.13-2.863 1.47-1.909 18.33 10.671 40.941 17.134 64.33 17.134 15.78 0 33.116-3.296 49.069-10.063 2.377-1.084 4.409 1.562 2.075 3.297z"/><path d="M123.679 55.093c-1.816-2.342-12.019-1.128-16.645-.564-1.383.174-1.599-1.04-.346-1.952 8.128-5.726 21.487-4.077 23.043-2.169 1.557 1.952-.432 15.356-8.041 21.776-1.167.997-2.291.477-1.773-.825 1.73-4.294 5.577-13.967 3.762-16.266z"/></g><defs><clipPath id="clip0"><path fill="#fff" d="M.25 0h130v78H.25z"/></clipPath></defs></svg>
